Lila_HD/apps/scalable/natronIcon256_linux.svg

<?xml version="1.0" encoding="UTF-8" standalone="no"?>
<svg
   xmlns:dc="http://purl.org/dc/elements/1.1/"
   xmlns:cc="http://creativecommons.org/ns#"
   xmlns:rdf="http://www.w3.org/1999/02/22-rdf-syntax-ns#"
   xmlns:svg="http://www.w3.org/2000/svg"
   xmlns="http://www.w3.org/2000/svg"
   xmlns:xlink="http://www.w3.org/1999/xlink"
   xmlns:sodipodi="http://sodipodi.sourceforge.net/DTD/sodipodi-0.dtd"
   xmlns:inkscape="http://www.inkscape.org/namespaces/inkscape"
   viewBox="0 0 48 48"
   version="1.1"
   id="svg138"
   sodipodi:docname="natronIcon256_linux.svg"
   inkscape:version="0.92.2 5c3e80d, 2017-08-06">
  <metadata
     id="metadata142">
    <rdf:RDF>
      <cc:Work
         rdf:about="">
        <dc:format>image/svg+xml</dc:format>
        <dc:type
           rdf:resource="http://purl.org/dc/dcmitype/StillImage" />
      </cc:Work>
    </rdf:RDF>
  </metadata>
  <sodipodi:namedview
     pagecolor="#ffffff"
     bordercolor="#666666"
     borderopacity="1"
     objecttolerance="10"
     gridtolerance="10"
     guidetolerance="10"
     inkscape:pageopacity="0"
     inkscape:pageshadow="2"
     inkscape:window-width="1280"
     inkscape:window-height="943"
     id="namedview140"
     showgrid="false"
     inkscape:zoom="4.9166667"
     inkscape:cx="-3.2542373"
     inkscape:cy="22.372881"
     inkscape:window-x="0"
     inkscape:window-y="19"
     inkscape:window-maximized="1"
     inkscape:current-layer="svg138" />
  <defs
     id="defs116">
    <linearGradient
       id="linearGradient4167"
       x1="23.999"
       y1="47"
       x2="24"
       y2="1"
       gradientUnits="userSpaceOnUse">
      <stop
         style="stop-color:#414141;stop-opacity:1"
         id="stop111" />
      <stop
         offset="1"
         style="stop-color:#4b4b4b;stop-opacity:1"
         id="stop113" />
    </linearGradient>
    <linearGradient
       inkscape:collect="always"
       xlink:href="#linearGradient6139-0"
       id="linearGradient4071"
       gradientUnits="userSpaceOnUse"
       gradientTransform="matrix(0.55357139,0,0,0.5535713,-2.571429,-2.0178565)"
       x1="6"
       y1="47.000011"
       x2="90"
       y2="47.000011" />
    <linearGradient
       id="linearGradient6139-0">
      <stop
         id="stop6141-2"
         offset="0"
         style="stop-color:#b2babc;stop-opacity:1" />
      <stop
         style="stop-color:#ffffff;stop-opacity:1;"
         offset="0.25"
         id="stop6151-0" />
      <stop
         style="stop-color:#96a1a4;stop-opacity:1"
         offset="0.5"
         id="stop6147-1" />
      <stop
         id="stop6149-4"
         offset="0.75"
         style="stop-color:#fbf9f9;stop-opacity:1;" />
      <stop
         id="stop6143-4"
         offset="1"
         style="stop-color:#b2b9bc;stop-opacity:1" />
    </linearGradient>
    <linearGradient
       gradientTransform="scale(0.49999999)"
       inkscape:collect="always"
       xlink:href="#linearGradient3832-0-6-1-1"
       id="linearGradient4129"
       x1="1.5"
       y1="88.171875"
       x2="94.5"
       y2="88.171875"
       gradientUnits="userSpaceOnUse" />
    <linearGradient
       id="linearGradient3832-0-6-1-1">
      <stop
         style="stop-color:#000000;stop-opacity:1;"
         offset="0"
         id="stop3834-6-3-7-1" />
      <stop
         id="stop3872-2-4"
         offset="0.1"
         style="stop-color:#000000;stop-opacity:0.58823532;" />
      <stop
         style="stop-color:#000000;stop-opacity:0.58823532;"
         offset="0.89999998"
         id="stop3844-6-2-7-6" />
      <stop
         style="stop-color:#000000;stop-opacity:1;"
         offset="1"
         id="stop3836-5-0-2-9" />
    </linearGradient>
    <radialGradient
       inkscape:collect="always"
       xlink:href="#linearGradient3737"
       id="radialGradient7462"
       gradientUnits="userSpaceOnUse"
       gradientTransform="matrix(0.48756688,0,0,0.02459536,16.949346,40.083348)"
       cx="13.948145"
       cy="44.892841"
       fx="13.948145"
       fy="44.892841"
       r="43.199203" />
    <linearGradient
       id="linearGradient3737">
      <stop
         offset="0"
         style="stop-color:#ffffff;stop-opacity:1"
         id="stop3739" />
      <stop
         offset="1"
         style="stop-color:#ffffff;stop-opacity:0"
         id="stop3741" />
    </linearGradient>
    <radialGradient
       inkscape:collect="always"
       xlink:href="#linearGradient3737"
       id="radialGradient7464"
       gradientUnits="userSpaceOnUse"
       gradientTransform="matrix(0.44416331,0,0,0.02459536,15.772246,-45.084151)"
       cx="13.948145"
       cy="44.892841"
       fx="13.948145"
       fy="44.892841"
       r="43.199203" />
    <linearGradient
       inkscape:collect="always"
       xlink:href="#linearGradient3737"
       id="linearGradient4767"
       gradientUnits="userSpaceOnUse"
       x1="2.7713892"
       y1="-28.64156"
       x2="50.527882"
       y2="14.514202" />
    <clipPath
       id="clipPath4156-4-1"
       clipPathUnits="userSpaceOnUse">
      <path
         inkscape:connector-curvature="0"
         id="path4158-0-8"
         d="m 27.046336,-55.695463 -14.21366,13.321486 h 0.06127 l 15.653407,21.770763 10.231384,-10.546177 C 38.561832,-32.30156 27.468089,-54.819245 27.046336,-55.695463 Z M 9.6468554,-39.382809 -5.2407289,-25.32124 15.987863,-7.8059573 26.372412,-18.382966 Z m 31.4906096,12.951445 -9.741259,9.713584 8.944804,12.4580526 7.780753,-7.5550056 z m -49.8397109,4.378822 -13.7541661,12.9822847 26.2830181,13.84571 0.06127,-0.0617 -0.122531,-0.0617 L 13.598503,-5.4007374 -8.7022409,-22.052595 Z m 38.0154159,7.400825 -9.802525,9.7752596 11.579232,9.5594001 7.62759,-7.40083 -8.669108,-11.0087257 z m 20.187073,5.6739697 -7.382526,7.2158 6.187844,8.54179 5.820249,-6.13651996 z m -32.195166,6.32154 -9.5574606,9.49772 13.6622686,7.1849703 7.933918,-7.6783603 z m 23.311629,2.37443004 -7.10683,6.93826996 8.362778,6.9074403 5.360756,-5.6739699 -0.06127,-0.0925 -0.0919,0.12335 -6.463539,-8.20258036 z m -8.730374,8.54178036 -7.505057,7.3391599 10.353916,5.45811 c 1.397496,-1.32103 5.67514,-6.12292 5.850882,-6.32154 z"
         style="opacity:0.6;fill:#ffffff;fill-opacity:1;stroke:none" />
    </clipPath>
    <linearGradient
       id="ButtonShadow-16"
       gradientTransform="scale(1.0058652,0.994169)"
       x1="45.447727"
       y1="92.539597"
       x2="45.447727"
       y2="7.0165396"
       gradientUnits="userSpaceOnUse">
      <stop
         style="stop-color:#000000;stop-opacity:1;"
         offset="0"
         id="stop3750-6" />
      <stop
         style="stop-color:#000000;stop-opacity:0.58823532;"
         offset="1"
         id="stop3752-4" />
    </linearGradient>
    <clipPath
       clipPathUnits="userSpaceOnUse"
       id="clipPath4355-7">
      <rect
         style="fill:#ffffff;fill-opacity:1;fill-rule:nonzero;stroke:none"
         id="rect4357-5"
         width="84"
         height="80"
         x="6"
         y="6"
         rx="6"
         ry="6" />
    </clipPath>
    <clipPath
       clipPathUnits="userSpaceOnUse"
       id="clipPath4355-9">
      <rect
         style="fill:#ffffff;fill-opacity:1;fill-rule:nonzero;stroke:none"
         id="rect4357-1"
         width="84"
         height="80"
         x="6"
         y="6"
         rx="6"
         ry="6" />
    </clipPath>
    <clipPath
       clipPathUnits="userSpaceOnUse"
       id="clipPath4355-1">
      <rect
         style="fill:#ffffff;fill-opacity:1;fill-rule:nonzero;stroke:none"
         id="rect4357-9"
         width="84"
         height="80"
         x="6"
         y="6"
         rx="6"
         ry="6" />
    </clipPath>
    <clipPath
       clipPathUnits="userSpaceOnUse"
       id="clipPath3943-52-0">
      <path
         id="path3945-4-1"
         d="m 69.78125,20.84375 -5,3.4375 c 5.586891,5.537137 9,13.327613 9,21.8125 0,8.434478 -3.37723,16.095981 -8.90625,21.625 l 5,3.4375 C 76.078226,64.5762 80,55.843726 80,46.09375 c 2e-6,-9.796556 -3.962955,-18.660417 -10.21875,-25.25 z M 40,24.0625 28.90625,36.21875 H 21.5 c -0.823281,0 -1.5,0.676717 -1.5,1.5 v 1 14.84375 1 c 0,0.823281 0.684121,1.610161 1.5,1.5 h 7.40625 L 40,68 V 66 26.0625 Z m 20.59375,3.28125 -5,3.4375 L 55.5,30.875 c 3.93815,3.890071 6.40625,9.25018 6.40625,15.21875 0,5.920869 -2.42961,11.148358 -6.3125,15.03125 l 0.09375,0.09375 5.09375,3.4375 c 4.475428,-4.908367 7.25,-11.402005 7.25,-18.5625 0,-7.230696 -2.87904,-13.83107 -7.4375,-18.75 z m -9.25,6.5 -5.21875,3.625 c 2.222384,2.217802 3.71875,5.239596 3.71875,8.625 0,3.336509 -1.458847,6.227712 -3.625,8.4375 l 5.21875,3.625 c 2.822412,-3.236947 4.53125,-7.43414 4.53125,-12.0625 0,-4.672601 -1.754155,-9.001351 -4.625,-12.25 z"
         style="color:#000000;display:inline;overflow:visible;visibility:visible;opacity:0.8;fill:#ff00ff;fill-opacity:1;fill-rule:nonzero;stroke:none;stroke-width:1;marker:none;enable-background:accumulate"
         inkscape:connector-curvature="0" />
    </clipPath>
  </defs>
  <path
     style="display:inline;opacity:0.15;fill:#000000;fill-opacity:1;fill-rule:nonzero;stroke:none;stroke-width:0.5"
     d="M 44.571426,0 H 3.4285677 C 1.5291438,0 2.0851044e-7,1.5291425 2.0851044e-7,3.42857 V 44.571429 C 2.0851044e-7,46.470857 1.5291438,48 3.4285677,48 H 44.571426 C 46.470855,48 48,46.470857 48,44.571429 V 3.42857 C 48,1.5291425 46.470855,0 44.571426,0 Z"
     id="path3288"
     inkscape:connector-curvature="0" />
  <path
     inkscape:connector-curvature="0"
     id="path4085"
     d="M 44.249998,0.375 H 3.7499957 c -1.8697459,0 -3.3749964,1.5052495 -3.3749964,3.3749985 V 44.25 c 0,1.869751 1.5052505,3.375 3.3749964,3.375 H 44.249998 C 46.11975,47.625 47.625,46.119751 47.625,44.25 V 3.7499985 C 47.625,1.8802495 46.11975,0.375 44.249998,0.375 Z"
     style="display:inline;opacity:0.15;fill:#000000;fill-opacity:1;fill-rule:nonzero;stroke:none;stroke-width:0.5" />
  <path
     style="display:inline;fill:url(#linearGradient4071);fill-opacity:1;fill-rule:nonzero;stroke:none;stroke-width:0.5"
     d="M 43.928568,0.75 H 4.0714277 C 2.2313563,0.75 0.74999949,2.2313565 0.74999949,4.0714274 V 43.928573 c 0,1.840071 1.48135681,3.321427 3.32142821,3.321427 H 43.928568 c 1.840071,0 3.321427,-1.481357 3.321427,-3.321427 V 4.0714275 C 47.249995,2.2313565 45.768639,0.75 43.928568,0.75 Z"
     id="rect4251-1"
     inkscape:connector-curvature="0" />
  <path
     style="display:inline;opacity:0.9;fill:#666666;fill-opacity:1;fill-rule:nonzero;stroke:none;stroke-width:0.51475126"
     d="m 5.6206456,3.1935711 c -1.4282481,0 -2.5620641,1.1441891 -2.5620641,2.5855014 v 10.7136705 3.619701 19.956837 c 0.5486199,0.842242 1.4844242,1.405866 2.5620641,1.405866 h 2.0496515 32.7944239 2.049651 c 1.07764,0 2.013444,-0.563624 2.562064,-1.405866 V 20.112444 16.492743 5.7790725 c 0,-1.4413123 -1.133816,-2.5855014 -2.562064,-2.5855014 z"
     id="path3400-6"
     inkscape:connector-curvature="0"
     sodipodi:nodetypes="sscccsccscccsss" />
  <path
     inkscape:connector-curvature="0"
     id="path4989"
     d="m 4.9125392,2.3647305 c -1.5583105,0 -2.8339824,1.269755 -2.8339824,2.823002 V 39.826731 c 0,1.553247 1.2756719,2.823002 2.8339824,2.823002 H 43.308431 c 1.55831,0 2.833984,-1.269755 2.833984,-2.823002 V 5.1877325 c 0,-1.5532466 -1.275674,-2.8230021 -2.833984,-2.8230021 z m 0,1.1597195 H 43.308431 c 0.944049,0 1.676011,0.7400475 1.676011,1.6632825 V 39.826731 c 0,0.923237 -0.731962,1.663282 -1.676011,1.663282 H 4.9125392 c -0.9440495,0 -1.676011,-0.740045 -1.676011,-1.663282 V 5.1877325 c 0,-0.923235 0.7319615,-1.6632826 1.676011,-1.6632825 z"
     style="color:#000000;font-style:normal;font-variant:normal;font-weight:normal;font-stretch:normal;font-size:medium;line-height:normal;font-family:Sans;-inkscape-font-specification:Sans;text-indent:0;text-align:start;text-decoration:none;text-decoration-line:none;letter-spacing:normal;word-spacing:normal;text-transform:none;writing-mode:lr-tb;direction:ltr;baseline-shift:baseline;text-anchor:start;display:inline;overflow:visible;visibility:visible;fill:#1f2224;fill-opacity:0.63265303;stroke:none;stroke-width:1.1877501;marker:none;enable-background:accumulate" />
  <path
     inkscape:connector-curvature="0"
     style="display:inline;opacity:0.65818182;fill:url(#linearGradient4129);fill-opacity:1;fill-rule:nonzero;stroke:none;stroke-width:0.5"
     d="m 0.74999899,40.921875 v 3 c 0,1.840071 1.48805331,3.328125 3.32812471,3.328125 H 43.921873 C 45.761944,47.25 47.25,45.761946 47.25,43.921875 v -3 C 47.25,42.761946 45.761944,44.25 43.921873,44.25 H 4.0781237 c -1.8400714,0 -3.32812471,-1.488054 -3.32812471,-3.328125 z"
     id="path4118" />
  <rect
     style="opacity:0.55;fill:url(#radialGradient7462);fill-opacity:1;stroke:none;stroke-width:0.5"
     id="rect4131"
     width="42.125004"
     height="2.125"
     x="2.687499"
     y="40.125004"
     rx="0"
     ry="2.125" />
  <rect
     ry="2.125"
     rx="0"
     y="-45.042503"
     x="2.7799981"
     height="2.125"
     width="38.375"
     id="rect4141"
     style="opacity:0.669;fill:url(#radialGradient7464);fill-opacity:1;stroke:none;stroke-width:0.5"
     transform="rotate(90)" />
  <path
     d="M 14.64634,36.703451 6.5342149,21.831222 14.64634,8.3110127 h 9.464146 L 33.574632,21.831222 V 8.3110127 L 41.686757,21.831222 34.926653,36.703451 H 24.110486 L 14.64634,21.831222 Z"
     style="fill:#f2f2f2;fill-rule:evenodd;stroke:none;stroke-width:1.35202086"
     id="path136"
     inkscape:connector-curvature="0" />
  <rect
     transform="matrix(0.53462254,0,0,0.52384145,2.1476123,19.239494)"
     style="opacity:0.65;fill:url(#linearGradient4767);fill-opacity:1;stroke:none"
     id="rect4146"
     width="75.965775"
     height="69.024437"
     x="2"
     y="-30"
     rx="3.9569874"
     ry="3.9569881"
     clip-path="url(#clipPath4156-4-1)" />
</svg>

<?xml version="1.0" encoding="UTF-8"?>
<svg version="1.1" viewBox="0 0 48 48" xmlns="http://www.w3.org/2000/svg" xmlns:cc="http://creativecommons.org/ns#" xmlns:dc="http://purl.org/dc/elements/1.1/" xmlns:rdf="http://www.w3.org/1999/02/22-rdf-syntax-ns#" xmlns:xlink="http://www.w3.org/1999/xlink">
<metadata>
<rdf:RDF>
<cc:Work rdf:about="">
<dc:format>image/svg+xml</dc:format>
<dc:type rdf:resource="http://purl.org/dc/dcmitype/StillImage"/>
</cc:Work>
</rdf:RDF>
</metadata>
<defs>
<linearGradient id="linearGradient4071" x1="6" x2="90" y1="47" y2="47" gradientTransform="matrix(.55357 0 0 .55357 -2.5714 -2.0179)" gradientUnits="userSpaceOnUse">
<stop stop-color="#b2babc" offset="0"/>
<stop stop-color="#fff" offset=".25"/>
<stop stop-color="#96a1a4" offset=".5"/>
<stop stop-color="#fbf9f9" offset=".75"/>
<stop stop-color="#b2b9bc" offset="1"/>
</linearGradient>
<linearGradient id="linearGradient4129" x1="1.5" x2="94.5" y1="88.172" y2="88.172" gradientTransform="scale(.5)" gradientUnits="userSpaceOnUse">
<stop offset="0"/>
<stop stop-opacity=".58824" offset=".1"/>
<stop stop-opacity=".58824" offset=".9"/>
<stop offset="1"/>
</linearGradient>
<radialGradient id="radialGradient7462" cx="13.948" cy="44.893" r="43.199" gradientTransform="matrix(.48757 0 0 .024595 16.949 40.083)" gradientUnits="userSpaceOnUse" xlink:href="#linearGradient3737"/>
<linearGradient id="linearGradient3737">
<stop stop-color="#fff" offset="0"/>
<stop stop-color="#fff" stop-opacity="0" offset="1"/>
</linearGradient>
<radialGradient id="radialGradient7464" cx="13.948" cy="44.893" r="43.199" gradientTransform="matrix(.44416 0 0 .024595 15.772 -45.084)" gradientUnits="userSpaceOnUse" xlink:href="#linearGradient3737"/>
<linearGradient id="linearGradient4767" x1="2.7714" x2="50.528" y1="-28.642" y2="14.514" gradientUnits="userSpaceOnUse" xlink:href="#linearGradient3737"/>
<clipPath id="clipPath4156-4-1">
<path d="m27.046-55.695-14.214 13.321h0.06127l15.653 21.771 10.231-10.546c-0.2169-1.1522-11.311-23.67-11.732-24.546zm-17.399 16.313-14.888 14.062 21.229 17.515 10.385-10.577zm31.491 12.951-9.7413 9.7136 8.9448 12.458 7.7808-7.555zm-49.84 4.3788-13.754 12.982 26.283 13.846 0.06127-0.0617-0.12253-0.0617 9.8332-10.053-22.301-16.652zm38.015 7.4008-9.8025 9.7753 11.579 9.5594 7.6276-7.4008-8.6691-11.009zm20.187 5.674-7.3825 7.2158 6.1878 8.5418 5.8202-6.1365zm-32.195 6.3215-9.5575 9.4977 13.662 7.185 7.9339-7.6784zm23.312 2.3744-7.1068 6.9383 8.3628 6.9074 5.3608-5.674-0.06127-0.0925-0.0919 0.12335-6.4635-8.2026zm-8.7304 8.5418-7.5051 7.3392 10.354 5.4581c1.3975-1.321 5.6751-6.1229 5.8509-6.3215z" fill="#fff" opacity=".6"/>
</clipPath>
</defs>
<path d="m44.571 0h-41.143c-1.8994 0-3.4286 1.5291-3.4286 3.4286v41.143c0 1.8994 1.5291 3.4286 3.4286 3.4286h41.143c1.8994 0 3.4286-1.5291 3.4286-3.4286v-41.143c0-1.8994-1.5291-3.4286-3.4286-3.4286z" opacity=".15"/>
<path d="m44.25 0.375h-40.5c-1.8697 0-3.375 1.5052-3.375 3.375v40.5c0 1.8698 1.5053 3.375 3.375 3.375h40.5c1.8698 0 3.375-1.5052 3.375-3.375v-40.5c0-1.8697-1.5052-3.375-3.375-3.375z" opacity=".15"/>
<path d="m43.929 0.75h-39.857c-1.8401 0-3.3214 1.4814-3.3214 3.3214v39.857c0 1.8401 1.4814 3.3214 3.3214 3.3214h39.857c1.8401 0 3.3214-1.4814 3.3214-3.3214v-39.857c0-1.8401-1.4814-3.3214-3.3214-3.3214z" fill="url(#linearGradient4071)"/>
<path d="m5.6206 3.1936c-1.4282 0-2.5621 1.1442-2.5621 2.5855v34.29c0.54862 0.84224 1.4844 1.4059 2.5621 1.4059h36.894c1.0776 0 2.0134-0.56362 2.5621-1.4059v-34.29c0-1.4413-1.1338-2.5855-2.5621-2.5855z" fill="#666" opacity=".9"/>
<path d="m4.9125 2.3647c-1.5583 0-2.834 1.2698-2.834 2.823v34.639c0 1.5532 1.2757 2.823 2.834 2.823h38.396c1.5583 0 2.834-1.2698 2.834-2.823v-34.639c0-1.5532-1.2757-2.823-2.834-2.823zm0 1.1597h38.396c0.94405 0 1.676 0.74005 1.676 1.6633v34.639c0 0.92324-0.73196 1.6633-1.676 1.6633h-38.396c-0.94405 0-1.676-0.74004-1.676-1.6633v-34.639c0-0.92324 0.73196-1.6633 1.676-1.6633z" color="#000000" fill="#1f2224" fill-opacity=".63265" style="text-decoration-line:none;text-indent:0;text-transform:none"/>
<path d="m0.75 40.922v3c0 1.8401 1.4881 3.3281 3.3281 3.3281h39.844c1.8401 0 3.3281-1.4881 3.3281-3.3281v-3c0 1.8401-1.4881 3.3281-3.3281 3.3281h-39.844c-1.8401 0-3.3281-1.4881-3.3281-3.3281z" fill="url(#linearGradient4129)" opacity=".65818"/>
<rect x="2.6875" y="40.125" width="42.125" height="2.125" rx="0" ry="2.125" fill="url(#radialGradient7462)" opacity=".55"/>
<rect transform="rotate(90)" x="2.78" y="-45.043" width="38.375" height="2.125" rx="0" ry="2.125" fill="url(#radialGradient7464)" opacity=".669"/>
<path d="m14.646 36.703-8.1121-14.872 8.1121-13.52h9.4641l9.4641 13.52v-13.52l8.1121 13.52-6.7601 14.872h-10.816l-9.4641-14.872z" fill="#f2f2f2" fill-rule="evenodd"/>
<rect transform="matrix(.53462 0 0 .52384 2.1476 19.239)" x="2" y="-30" width="75.966" height="69.024" rx="3.957" ry="3.957" clip-path="url(#clipPath4156-4-1)" fill="url(#linearGradient4767)" opacity=".65"/>
</svg>
